icon/pk/bad-one.svg

<svg viewBox="0 0 48 48" fill="none" xmlns="http://www.w3.org/2000/svg" height="1em" width="1em">
  <path d="M35.9115 6.45609L41.2811 25.4561C41.6418 26.7325 40.6828 28 39.3564 28H27.8747C27.1714 28 26.651 28.6542 26.8091 29.3395L27.3086 31.5039C27.7668 33.4893 27.9139 35.5337 27.7446 37.5642L27.6527 38.6673C27.5541 39.8507 27.0393 40.9607 26.1996 41.8004C25.4315 42.5685 24.3898 43 23.3035 43H23.0644C22.4074 43 21.8021 42.6438 21.4831 42.0696L18.825 37.2851C17.6329 35.1392 15.8559 33.376 13.7009 32.2005L7.0423 28.5685C6.39977 28.2181 6 27.5446 6 26.8127V7C6 5.89543 6.89543 5 8 5H33.9869C34.882 5 35.6681 5.59473 35.9115 6.45609Z" fill="#2F88FF" stroke="black" stroke-width="4" stroke-linecap="round" stroke-linejoin="round"/>
</svg>

<svg width="48" height="48" fill="none" xmlns="http://www.w3.org/2000/svg"><path d="m35.911 6.456 5.37 19A2 2 0 0 1 39.356 28H27.875c-.704 0-1.224.654-1.066 1.34l.5 2.164c.458 1.985.605 4.03.436 6.06l-.092 1.103A5.02 5.02 0 0 1 26.2 41.8a4.096 4.096 0 0 1-2.896 1.2h-.24a1.809 1.809 0 0 1-1.58-.93l-2.659-4.785a12.962 12.962 0 0 0-5.124-5.084l-6.659-3.633A2 2 0 0 1 6 26.814V7a2 2 0 0 1 2-2h25.987a2 2 0 0 1 1.924 1.456Z" fill="#2F88FF" stroke="#000" stroke-width="4" stroke-linecap="round" stroke-linejoin="round"/></svg>
